build/img/vk.svg

<svg width="24" height="16" viewBox="0 0 24 16" fill="none" xmlns="http://www.w3.org/2000/svg">
<path d="M14.5598 7.68297C14.1228 7.50516 14.1228 6.82609 14.0957 6.3532C13.9864 4.66877 14.5327 2.09719 13.8771 1.00387C13.4129 0.353171 11.1725 0.412756 9.80708 0.501659C9.4242 0.561243 8.96002 0.649201 8.63222 0.827008C8.30441 1.00481 7.9766 1.2999 7.9766 1.56566C7.9766 1.94965 8.79656 1.89101 9.09639 2.39322C9.4242 2.92569 9.4242 4.07765 9.4242 5.02343C9.4242 6.11676 9.25986 7.56569 8.85075 7.62433C8.22224 7.65365 7.86734 6.97363 7.53953 6.47142C6.88392 5.49632 6.22831 4.28383 5.73616 3.10161C5.49052 2.48118 5.35328 1.80116 4.99838 1.5354C4.45203 1.12115 3.46861 1.09183 2.51229 1.12115C1.63814 1.15046 0.381118 1.03224 0.135481 1.59404C-0.0559573 2.21447 0.354019 2.80558 0.572556 3.30874C1.69234 5.93895 2.8943 8.24476 4.36986 10.4314C5.73616 12.4705 7.01941 14.0963 9.53259 14.9532C10.2433 15.1896 13.357 15.8696 13.9855 14.9532C14.204 14.5985 14.1499 13.8003 14.2591 13.2092C14.3684 12.618 14.5048 12.0269 15.024 11.9976C15.4611 11.9683 15.7067 12.3816 15.9803 12.6776C16.281 13.003 16.5267 13.2687 16.7452 13.5648C17.2644 14.1266 17.8108 14.8945 18.4664 15.1906C19.3677 15.6048 20.761 15.4866 22.0723 15.427C23.1379 15.3977 23.9027 15.1613 23.9849 14.4812C24.04 13.9488 23.4928 13.1808 23.165 12.7372C22.345 11.6439 21.963 11.3185 21.0338 10.3132C20.6238 9.86961 20.1046 9.39672 20.1046 8.86519C20.0775 8.53985 20.3231 8.24476 20.5416 7.91941C21.498 6.38252 22.4543 5.2892 23.3284 3.69272C23.5741 3.21983 24.1484 2.12651 23.9298 1.59404C23.6842 1.00292 22.3179 1.17978 21.4709 1.17978C20.3782 1.17978 18.9577 1.09088 18.6841 1.32733C18.1648 1.71131 17.9463 2.33269 17.7006 2.9238C17.1543 4.28383 16.4165 5.67224 15.6516 6.70692C15.378 7.06159 14.8597 7.80024 14.559 7.68202L14.5598 7.68297Z" fill="#3F3740" fill-opacity="0.3"/>
</svg>

<svg width="24" height="16" fill="none" xmlns="http://www.w3.org/2000/svg"><path d="M14.56 7.683c-.437-.178-.437-.857-.464-1.33-.11-1.684.437-4.256-.219-5.35-.464-.65-2.705-.59-4.07-.501-.383.06-.847.147-1.175.325-.328.178-.655.473-.655.739 0 .384.82.325 1.12.827.327.533.327 1.685.327 2.63 0 1.094-.164 2.543-.573 2.601-.629.03-.984-.65-1.311-1.153a20.17 20.17 0 01-1.804-3.37c-.245-.62-.383-1.3-.738-1.566-.546-.414-1.53-.443-2.486-.414-.874.03-2.13-.089-2.377.473-.191.62.219 1.212.438 1.715 1.12 2.63 2.321 4.936 3.797 7.122 1.366 2.04 2.65 3.665 5.163 4.522.71.237 3.824.917 4.453 0 .218-.354.164-1.153.273-1.744.11-.591.246-1.182.765-1.211.437-.03.683.384.956.68.301.325.547.59.765.887.52.562 1.066 1.33 1.721 1.626.902.414 2.295.296 3.606.236 1.066-.03 1.83-.266 1.913-.946.055-.532-.492-1.3-.82-1.744-.82-1.093-1.202-1.418-2.131-2.424-.41-.443-.93-.916-.93-1.448-.026-.325.22-.62.438-.946.956-1.536 1.912-2.63 2.786-4.226.246-.473.82-1.566.602-2.099-.246-.591-1.612-.414-2.46-.414-1.092 0-2.512-.09-2.786.147-.52.384-.738 1.006-.983 1.597-.547 1.36-1.285 2.748-2.05 3.783-.273.355-.791 1.093-1.092.975v.001z" fill="#3F3740" fill-opacity=".3"/></svg>
